static/img/svg/bx-calculator.svg

<svg xmlns="http://www.w3.org/2000/svg" width="24" height="24" viewBox="0 0 24 24"><path d="M7 11H9V13H7zM7 15H9V17H7zM11 15H13V17H11zM11 11H13V13H11zM15 11H17V17H15z"/><path d="M4,21h16c0.553,0,1-0.447,1-1V4c0-0.552-0.447-1-1-1H4C3.447,3,3,3.448,3,4v16C3,20.553,3.447,21,4,21z M5,19V9h14v10H5z M19,5v2H5V5H19z"/></svg>

<svg xmlns="http://www.w3.org/2000/svg" width="24" height="24" viewBox="0 0 24 24"><path d="M7 11h2v2H7zM7 15h2v2H7zM11 15h2v2h-2zM11 11h2v2h-2zM15 11h2v6h-2z"/><path d="M4 21h16a1 1 0 0 0 1-1V4a1 1 0 0 0-1-1H4a1 1 0 0 0-1 1v16a1 1 0 0 0 1 1zM5 5h14v14H5V5z"/><path d="M7 7h10v2H7z"/></svg>
